X:1
T:Title
%%score { ( 1 3 ) | ( 2 4 ) }
L:1/8
M:6/8
K:F
V:1 treble nm="Grand Piano"
V:3 treble 
V:2 bass 
V:4 bass 
V:1
 z3 z2[Q:1/4=100] c | c2 =B c2 d | c3 A2 G | F2 E [CF]2 [CEG] | [CFA]3 z2 [CFA] | %5
 [B,FB]2 [CFA] [DFB]2 [Fd] | c3 A2 B | c2 c B2 A | [EG]3 z2 [Ec] | c2 =B c2 d | c3 A2 G | %11
 F2 E [CF]2 [CEG] | [CFA]3 z2 [CFA] | [B,FB]2 [B,FB] [Fd]2 [Fd] |[M:7/8] [Fc]3 [CF]3 [DFG] | %15
[M:3/4] [CFA]2 [DFB] [CFA]2 [B,EG] | F6 | c2 =B c2 d | c3 .A3 | A2 _A =A2 B | A3 .F3 | %21
 [EG]2 [EG] [EG]2 [FA] | [GB]2 [GB] [FA]2 [EG] | [FA]3 [F=B]2 [FB] | [Ec]6 | c2 =B c2 d | c3 A3 | %27
 A2 _A =A2 B | A3 .F3 | [DG]2 [DG] [DG]2 [CDA] | [DB]2 [CDA] [B,DG]2 [G,DF] | F3 E2 E | %32
[M:5/8] F-F- F3 |] %33
V:2
 z3 z2 [F,A,F] | [F,A,F]2 [F,_A,F] [F,=A,F]2 [F,B,F] | [F,A,F]3 [F,CF]2 [E,B,C] | %3
 [F,A,C]2 [C,G,C] A,,2 C, | F,3 z2 _E, | D,2 C, B,,2 [B,,B,] | [F,A,F]3 [F,CF]2 [G,CE] | %7
 [A,CF]2 [A,CF][K:bass] [G,CE]2 [F,CF] | [C,C]3 z2 [C,B,] | [F,A,F]2 [F,_A,F] [F,=A,F]2 [F,B,F] | %10
 [F,A,F]3 [F,CF]2 [E,B,C] | [F,A,C]2 [C,G,C] A,,2 C, | F,3 z2 _E, | D,2 D, [B,,B,]2 [B,,B,] | %14
[M:7/8] [F,A,]3 A,,3 B,, |[M:3/4] C,2 C, C,2 C, | [F,A,]6 | [F,A,F]2 [F,_A,F] [F,=A,F]2 [F,B,F] | %18
 [F,A,F]3 .[F,CF]3 | [F,CF]2 [F,=B,F] [F,CF]2 [F,DF] | [F,CF]3 .[F,A,C]3 | %21
 [C,C]2 [C,C] [C,C]2 [C,C] | [C,C]2 [C,C] [C,C]2 [C,C] | [F,C]3 [D,G,]2 [D,G,] | G,4 z2 | %25
 [F,A,F]2 [F,_A,F] [F,=A,F]2 [F,B,F] | [F,A,F]3 [F,CF]3 | [F,CF]2 [F,=B,F] [F,CF]2 [F,DF] | %28
 [F,CF]3 .[F,A,C]3 | [B,,B,]2 [B,,B,] [B,,B,]2 A,, | G,,2 A,, B,,2 =B,, | %31
 [C,A,C]3 [C,G,C]2 [C,B,C] |[M:5/8] [F,A,C]-[F,A,C]- [F,A,C]3 |] %33
V:3
 x6 | x6 | x6 | x6 | x6 | x6 | x6 | x6 | x6 | x6 | x6 | x6 | x6 | x6 |[M:7/8] x7 |[M:3/4] x6 | x6 | %17
 x6 | x6 | x6 | x6 | x6 | x6 | x6 | z2 z .B,3 | x6 | x6 | x6 | x6 | x6 | x6 | x6 |[M:5/8] x5 |] %33
V:4
 x6 | x6 | x6 | x6 | x6 | x6 | x6 | x3[K:bass] x3 | x6 | x6 | x6 | x6 | x6 | x6 |[M:7/8] x7 | %15
[M:3/4] x6 | x6 | x6 | x6 | x6 | x6 | x6 | x6 | x6 | C,6 | x6 | x6 | x6 | x6 | x6 | x6 | x6 | %32
[M:5/8] x5 |] %33

